X:332
T: "Die wiedergefundene Tochter"
N: Z1012
O: Europa, Mitteleuropa, Deutschland, Niederrhein
R: Romanze, Ballade, Odinwald - Sage
M: 6/8
L: 1/16
K: G
D2 | G2A2_B2A4A2 | G2F2G2A4
A2 | _B2cdcBA4
Ad | d2c2_B2c2B2A2 | _B2cdcBA2G2
A2 | G2F2G_ED4G2 | F2G2_B2A4
Bcd | c6d4cA | _B4A2G4

